X:1
T:The Music of John Low
T:Vivace
C:Håkan Lidén
C:maj 2017
Q:"Vivace    " 1/4=160
M:C
L:1/4
K:Am
V:fl2 nm="Flute 2 (& Piccolo)"
Z17 | z3 !mf!!<(!(e | (^g>a g)e | !<)!!f!(e2 a))(a | ^gg ^fg |
!>(! e3)!>)!!p! z | Z6 | z3 !f!(e | (c'>d') (c'e) | (c2 a))(c' | (d'c') bb | 
c'3) (c' | bb ^gb | aa fa | ^g2 (^fg) |!>(! e3) !>)!(e |!mf!!<(! (c'>d') (c'e) | 
(c2 a))(c' | (d'c' b)b |!<)!!ff!  c'3) (c' | af fg | (eg) (c'e') | ^d'>d' ba | 
^g3) z | Z27 | "^ $2Piccolo" z [K:Am transpose=12]!f!((g ea) | ^fa (bg | e^c) (AG | !>(!^F) A2) (A | 
!>)!!mf!d/c/B/A/ G) z| !mp!(B/A/B/A/ B/A/B/A/ | B/A/G/^F/ G/A/B/c/ | 
d/c/d/c/ d/^f/a/c'/ | b/a/g/^f/ g) z | Z6 | !mf!!<(!(e4- | e2 d2 | 
!<)!!ff!c4- | c) z3 | z !mf!!tenuto!(a2 !tenuto!a | !tenuto!a3) z | z !mp!!tenuto!(a2 !tenuto!a | !tenuto!a3) z  | z !p!!tenuto!a2 z | Z18 |]
